X:1
T:The Soul-Saving Story
T:The Soul-Saving Story
T:Pearl Johnson Sprague
T:Pearl Johnson Sprague, 1906
T:Public Domain Courtesy of the Cyber Hymnal™
C:Pearl Johnson Sprague
Z:Public Domain
Z:Courtesy of the Cyber Hymnal™
%%score ( 1 2 ) ( 3 4 )
L:1/8
Q:1/4=98
M:6/8
K:G
V:1 treble 
V:2 treble 
V:3 bass 
V:4 bass 
V:1
 D | [DG]2 [DG] [DG][DA][GB] | [Gd][Ge][Gd] [Gd]2 [DB] | G3 [DA]2 [DB] | [FA]3- [FA]2 [CD] | %5
w: 1.~The|Bi- ble tells me this|won- der- ful sto- ry,|Je- sus will|save; * ’Tis|
w: 2.~There’s|joy in Hea- ven when|sin- ners re- ceive it,|Je- sus will|save, * It|
w: 3.~I|love to think of this|soul- sav- ing sto- ry,|Je- sus will|save; * To|
 [B,G]2 [B,G] [DG][DA][GB] | [Gd][Ge][Gd] (BA)[DG] | d3 [GB]2 [DA] | [DG]3- [DG]2 || %9
w: sung by beau- ti- ful|an- gels in glo- * ry,|Je- sus will|save. *|
w: brings sal- va- tion to|all who be- lieve * it,|Je- sus will|save. *|
w: read and sing of His|grace and His glo- * ry,|Je- sus will|save. *|
"^Refrain" [Gd] | [Gd][Ge][Gd] [Gd]2 [GB] | G2 [FA] [GB]2 [Gd] | [Gd][Ge][Gd] [Gd][Gc][GB] | %13
w: ||||
w: That|soul- sav- ing sto- ry,|old yet new, I|love it and tell it be-|
w: ||||
!<(! [FA][GB][G^c]!<)! !fermata![Fd]2"^Doucet" [=CD] | [B,G]2 [B,G] [DG][DA][GB] | %15
w: ||
w: cause it is true; ’Tis|sung by beau- ti- ful|
w: ||
 [Gd][Ge][Gd] (BA)[DG] | d3 [GB]2 [DA] | [DG]3- [DG]2 |] %18
w: |||
w: an- gels in glo- * ry,|Je- sus will|save. *|
w: |||
V:2
 D | x6 | x6 | (^CCC) x3 | x6 | x6 | x3 D2 x | (FGA) x3 | x5 || x | x6 | G2 x4 | x6 | x6 | x6 | %15
 x3 D2 x | (FGA) x3 | x5 |] %18
V:3
 [G,B,] | [G,B,]2 [G,B,] [G,B,][G,C][G,D] | [G,B,][G,C][G,B,] [G,B,]2 G, | %3
 ([E,A,][E,A,][E,A,]) [D,F,]2 G, | [D,D]3- [D,D]2 [D,F,] | [G,,G,]2 [G,,G,] [G,B,][G,C][G,D] | %6
 [G,B,][G,C][G,B,] (DC)[G,B,] | ([D,A,][E,D][F,D]) [G,D]2 [D,C] | [G,,B,]3- [G,,B,]2 || [G,B,] | %10
 [G,B,][G,C][G,B,] [G,B,]2 [G,D] | [B,,D]2 [D,D] [G,D]2 [G,B,] | %12
 [G,B,][G,C][G,B,] [G,B,][G,E][G,D] | [A,D]A,A, !fermata![D,A,]2 [D,F,] | %14
 [G,,G,]2 [G,,G,] [G,B,][G,C][G,D] | [G,B,][G,C][G,B,] (DC)[G,B,] | %16
 ([D,A,][E,D][F,D]) [G,D]2 [D,C] | [G,,B,]3- [G,,B,]2 |] %18
V:4
 x | x6 | x5 G, | x5 G, | x6 | x6 | x3 G,2 x | x6 | x5 || x | x6 | x6 | x6 | x A,A, x3 | x6 | %15
 x3 G,2 x | x6 | x5 |] %18

